X: 1270
T: Bill Gilbert's Varsoviana No.2
B: australian traditional tunes wiki
M:3/4
L:1/8
R: Varsovienne
Q: 1/4=100
K:D
V:1 
F>E|:"D"D>F A>B A>F|A2 z G F>E|D>F A2 d2|"A7"[A2c2] z2 [Ac]>[Ac]|!
c2 E>G F2|G2 G>F G>A|c>B A>G F>E|1 "D"F2 z2F>E:|2 "D"D2 z2 A>d||!
|:"D"f2 f2 A>d|f2 f2 A>d|f2 g2 f2|"A7"e2 z2 A>c|!
"A7"e2 e2 A>c|e2 e2 A>c|g>e f>d d>c|1"D"d2 z2 A>d:|2 "D"d2 z2|]
% abcbook-tune_id 6342d53ac41225c0ae7f1565


% abcbook-boost 0
% abcbook-tablature 
% abcbook-transpose 
% abcbook-lastupdated 1665324356876
% abcbook-soundfonts 
% abcbook-repeats 1
% NFF Book 2015

